X: 34985
T: Rodney's Glory
R: hornpipe
M: 4/4
K: Adorian
c2 B>c A>Bc>A|B>GE>F G2 c>d|e>=fe>d c>de>^f|g>ed>^c d>=fe>d|
(3cdc B>c A>Bc>A|B>GE>F G2 e>d|(3cdc B>A G>AB>G|A4 A2:|
e>aa>b a>ge>d|e>=fe>d c2 A2|g2 (3gfg a>ge>^c|d>cA>F G2 E2|
A>GA>B c>Bc>d|e>fg>e a3 b|a>ge>d c>de>f|g>ed>^c d>=fe>d|
(3cdc B>c A>Bc>A|B>GE>F G2 e>d|(3cdc B>A G>AB>G|A2 A>G A2:|

